X: 4923
T: Break Yer Bass Drone Again
R: reel
M: 4/4
K: Eminor
D2|:EBBB Adc2|BdcB BAAA|BE(3EEE BEGA-|AAGA B/A/GED|
EBBB Adc2|BdcB BAGE|B2EE BEGA|1 BEGD E3D:|2 BEGD E3F||
|:G3E A3G|B2AG BDEE|EBdB eB(3BBB|e2dB BBAG|
ABFA G3A|ABAG BD(3EEE|ABAG BD(3DDD|1 ABAG ABAF:|2 ABAG ABAG||

